images/envelope.svg

<svg width="16" height="12" viewBox="0 0 16 12" fill="none" xmlns="http://www.w3.org/2000/svg">
<path d="M14.5 0.125183H1.50001C0.672854 0.125183 0 0.75329 0 1.52544V9.92691C0 10.6991 0.672854 11.3272 1.50001 11.3272H14.5C15.3271 11.3272 16 10.6991 16 9.92691V1.52544C16 0.75329 15.3271 0.125183 14.5 0.125183ZM14.5 1.05868C14.5679 1.05868 14.6325 1.07183 14.6916 1.09481L8 6.5088L1.30833 1.09481C1.36742 1.07186 1.43204 1.05868 1.49998 1.05868H14.5ZM14.5 10.3936H1.50001C1.22414 10.3936 0.999996 10.1844 0.999996 9.92688V2.08106L7.67236 7.47921C7.76661 7.55531 7.8833 7.59316 8 7.59316C8.1167 7.59316 8.23339 7.55534 8.32764 7.47921L15 2.08106V9.92691C15 10.1844 14.7759 10.3936 14.5 10.3936Z" fill="#2196F3"/>
</svg>

<svg width="16" height="12" fill="none" xmlns="http://www.w3.org/2000/svg"><path d="M14.5.125h-13c-.827 0-1.5.628-1.5 1.4v8.402c0 .772.673 1.4 1.5 1.4h13c.827 0 1.5-.628 1.5-1.4V1.525c0-.772-.673-1.4-1.5-1.4zm0 .934c.068 0 .133.013.192.036L8 6.509 1.308 1.095a.528.528 0 01.192-.036h13zm0 9.335h-13c-.276 0-.5-.21-.5-.467V2.08L7.672 7.48A.52.52 0 008 7.593a.52.52 0 00.328-.114L15 2.081v7.846c0 .257-.224.467-.5.467z" fill="#2196F3"/></svg>
